templates/bath.svg

<svg width="503" height="208" viewBox="0 0 503 208" fill="none" xmlns="http://www.w3.org/2000/svg">
<path d="M1.45931 2.05283L500.739 2.05286L500.739 206.353L1.4593 206.353L1.45931 2.05283Z" fill="white"/>
<path d="M378.989 143.765C378.235 143.765 377.624 143.158 377.624 142.41C377.624 141.662 378.235 141.055 378.989 141.055C379.743 141.055 380.354 141.662 380.354 142.41C380.354 143.158 379.743 143.765 378.989 143.765Z" fill="#1D2132"/>
<path d="M19.4692 173.844C19.4674 174.591 18.8623 175.193 18.1096 175.193C17.3569 175.193 16.7518 174.591 16.75 173.844L16.75 35.1118C16.75 34.3636 17.3558 33.7623 18.1096 33.7623C18.8634 33.7623 19.4692 34.3636 19.4692 35.1118L19.4692 173.844Z" fill="#1D2132"/>
<path d="M34.7743 17.5054L398.099 17.5054C398.852 17.5054 399.458 18.1066 399.458 18.8549C399.458 19.6031 398.852 20.2043 398.099 20.2043L34.7743 20.2043C34.0205 20.2043 33.3881 19.6031 33.3881 18.8548C33.3881 18.1066 34.0205 17.5054 34.7743 17.5054Z" fill="#1D2132"/>
<path d="M34.7743 188.749L398.099 188.749C398.852 188.749 399.458 189.35 399.458 190.098C399.458 190.846 398.852 191.447 398.099 191.447L34.7743 191.447C34.0205 191.447 33.3881 190.846 33.3881 190.098C33.3881 189.35 34.0205 188.749 34.7743 188.749Z" fill="#1D2132"/>
<path d="M1.45826 0.977029L500.739 0.977051C501.493 0.977051 502.099 1.57831 502.099 2.32653C502.099 3.07475 501.493 3.67602 500.739 3.67602L1.45826 3.67599C0.70493 3.67543 0.0986959 3.07439 0.0986959 2.32651C0.098696 1.57864 0.704931 0.977589 1.45826 0.977029Z" fill="#1D2132"/>
<path d="M1.45826 205.277L500.739 205.277C501.493 205.277 502.099 205.878 502.099 206.626C502.099 207.375 501.493 207.976 500.739 207.976L1.45826 207.976C0.70493 207.975 0.0986959 207.374 0.0986959 206.626C0.098696 205.878 0.704931 205.277 1.45826 205.277Z" fill="#1D2132"/>
<path d="M502.099 206.628C502.098 207.375 501.493 207.977 500.739 207.977C499.986 207.977 499.38 207.375 499.38 206.628L499.38 2.32653C499.38 1.57831 499.985 0.977051 500.739 0.977051C501.493 0.977051 502.099 1.57831 502.099 2.32653L502.099 206.628Z" fill="#1D2132"/>
<path d="M2.8178 206.628C2.81722 207.375 2.21169 207.977 1.45823 207.977C0.704779 207.977 0.0992464 207.375 0.0986677 206.628L0.0986767 2.32653C0.0986767 1.57831 0.704431 0.977051 1.45824 0.977051C2.21206 0.977051 2.81781 1.57831 2.81781 2.32653L2.8178 206.628Z" fill="#1D2132"/>
<path d="M55.5044 160.569L339.68 160.569C340.434 160.569 341.04 161.171 341.04 161.919C341.04 162.667 340.434 163.268 339.68 163.268L55.5044 163.268C54.7525 163.266 54.1448 162.666 54.1448 161.919C54.1448 161.172 54.7525 160.572 55.5044 160.569Z" fill="#1D2132"/>
<path d="M48.4066 153.522C48.4049 154.269 47.7998 154.872 47.047 154.872C46.2943 154.872 45.6892 154.269 45.6875 153.522L45.6875 55.4335C45.6875 54.6852 46.2932 54.084 47.047 54.084C47.8009 54.084 48.4066 54.6852 48.4066 55.4335L48.4066 153.522Z" fill="#1D2132"/>
<path d="M55.5044 45.6844L339.68 45.6844C340.434 45.6844 341.04 46.2857 341.04 47.0339C341.04 47.7822 340.434 48.3834 339.68 48.3834L55.5044 48.3834C54.7525 48.3811 54.1448 47.7807 54.1448 47.0339C54.1448 46.2871 54.7525 45.6867 55.5044 45.6844Z" fill="#1D2132"/>
<path d="M106.825 119.647C106.825 120.395 106.219 120.996 105.465 120.996C104.711 120.996 104.106 120.395 104.106 119.647L104.106 109.354C104.106 108.605 104.711 108.004 105.465 108.004C106.219 108.004 106.825 108.605 106.825 109.354L106.825 119.647Z" fill="#1D2132"/>
<path d="M90.1733 103.127L100.277 103.127C101.031 103.127 101.636 103.728 101.636 104.477C101.636 105.225 101.031 105.826 100.277 105.826L90.1733 105.826C89.421 105.824 88.8138 105.224 88.8138 104.477C88.8138 103.729 89.421 103.129 90.1733 103.127Z" fill="#1D2132"/>
<path d="M106.825 99.3314C106.823 100.078 106.218 100.681 105.465 100.681C104.712 100.681 104.107 100.078 104.106 99.3314L104.106 89.3029C104.106 88.5546 104.711 87.9534 105.465 87.9534C106.219 87.9534 106.825 88.5546 106.825 89.3029L106.825 99.3314Z" fill="#1D2132"/>
<path d="M110.647 103.127L120.75 103.127C121.504 103.127 122.11 103.728 122.11 104.477C122.11 105.225 121.504 105.826 120.75 105.826L110.647 105.826C109.894 105.824 109.287 105.224 109.287 104.477C109.287 103.729 109.894 103.129 110.647 103.127Z" fill="#1D2132"/>
<path d="M398.095 188.731C444.975 188.731 482.999 151.012 483.001 104.481C483.001 57.9474 444.976 20.2043 398.095 20.2043C397.343 20.202 396.736 19.6017 396.736 18.8548C396.736 18.108 397.343 17.5077 398.095 17.5054C446.484 17.5054 485.721 56.451 485.721 104.481C485.718 152.509 446.483 191.456 398.095 191.456C397.346 191.454 396.74 190.85 396.736 190.107C396.736 189.36 397.343 188.733 398.095 188.731Z" fill="#1D2132"/>
<path d="M36.1237 18.8784C36.11 19.6265 35.4911 20.215 34.7374 20.2014C26.4634 20.0537 19.642 26.638 19.489 34.8605L19.489 35.1251C19.4819 35.8673 18.8521 36.4746 18.1027 36.4746C17.3577 36.4695 16.7502 35.8641 16.7432 35.1251L16.7432 34.8076C16.9252 25.1001 24.9992 17.3263 34.7907 17.5024C35.5433 17.517 36.1369 18.1313 36.1237 18.8784Z" fill="#1D2132"/>
<path d="M34.4977 188.738L34.7643 188.738C35.5145 188.738 36.1181 189.344 36.1239 190.088C36.1239 190.836 35.5181 191.464 34.7643 191.464L34.4977 191.464C24.7083 191.464 16.7434 183.558 16.7434 173.841C16.7434 173.096 17.3536 172.497 18.1029 172.492C18.8568 172.492 19.4892 173.093 19.4892 173.841C19.4892 182.061 26.2159 188.738 34.4977 188.738Z" fill="#1D2132"/>
<path d="M105.698 111.512C109.775 111.37 112.958 108.019 112.843 103.971C112.699 99.9206 109.307 96.7473 105.245 96.8793C101.164 97.0166 97.9854 100.395 98.1008 104.447C98.2209 108.39 101.475 111.509 105.458 111.512L105.698 111.512ZM105.458 114.237C100.008 114.235 95.5184 109.945 95.355 104.526C95.1973 98.9881 99.5584 94.3711 105.139 94.1803C110.733 93.9921 115.373 98.357 115.562 103.891L115.429 105.929C114.623 110.523 110.662 114.073 105.778 114.237L105.458 114.237Z" fill="#1D2132"/>
<path d="M339.677 160.576C370.888 160.576 396.191 135.459 396.192 104.48C396.192 73.4989 370.889 48.3834 339.677 48.3834C338.925 48.3817 338.318 47.7811 338.318 47.0339C338.318 46.2867 338.925 45.6861 339.677 45.6844C372.397 45.6844 398.912 72.0025 398.912 104.48C398.91 136.955 372.396 163.275 339.677 163.275C338.927 163.273 338.321 162.669 338.318 161.925C338.318 161.178 338.925 160.577 339.677 160.576Z" fill="#1D2132"/>
<path d="M55.2411 160.293L55.5077 160.293C56.2597 160.293 56.8644 160.897 56.8672 161.643C56.8672 162.391 56.2615 162.992 55.5077 162.992L55.2411 162.992C49.9558 162.992 45.6708 158.765 45.6708 153.519C45.6708 152.771 46.3032 152.17 47.057 152.17C47.8055 152.176 48.4166 152.775 48.4166 153.519C48.4166 157.269 51.4635 160.293 55.2411 160.293Z" fill="#1D2132"/>
<path d="M55.5077 45.6844C56.2615 45.6844 56.8672 46.2857 56.8672 47.0339C56.8672 47.7822 56.2615 48.3834 55.5077 48.3834C51.6816 48.3834 48.5309 51.4225 48.4166 55.2102C48.3904 55.9548 47.7549 56.5291 47.0037 56.5068C46.2538 56.4839 45.6533 55.8743 45.6708 55.1308C45.8295 49.8686 50.2162 45.6844 55.5077 45.6844Z" fill="#1D2132"/>
<path d="M105.988 114.514L108.068 114.249C112.777 113.172 116.224 108.924 116.118 103.956C115.967 98.2914 111.216 93.79 105.508 93.9011C99.7903 94.0448 95.231 98.7828 95.3516 104.459C95.424 110.082 100.064 114.586 105.722 114.514L105.988 114.514ZM103.136 116.975C97.2092 115.848 92.7392 110.708 92.6592 104.485C92.5174 97.327 98.2143 91.3841 105.428 91.2022C112.649 91.051 118.655 96.7356 118.837 103.903L118.624 106.523C117.538 112.467 112.387 117.054 106.042 117.213L105.748 117.213L103.136 116.975Z" fill="#1D2132"/>
</svg>

<svg xmlns="http://www.w3.org/2000/svg" width="503" height="208" fill="none" viewBox="0 0 503 208"><path fill="#fff" d="M1.46 2.053h499.279v204.3H1.459z"/><path fill="#1d2132" d="M378.989 143.765a1.36 1.36 0 0 1-1.365-1.355 1.36 1.36 0 0 1 1.365-1.355 1.36 1.36 0 0 1 1.365 1.355 1.36 1.36 0 0 1-1.365 1.355M19.47 173.844a1.353 1.353 0 0 1-1.36 1.349 1.353 1.353 0 0 1-1.36-1.349V35.112c0-.748.606-1.35 1.36-1.35.753 0 1.36.602 1.36 1.35zM34.774 17.505H398.1a1.35 1.35 0 0 1 1.359 1.35 1.35 1.35 0 0 1-1.359 1.35H34.774c-.754 0-1.386-.602-1.386-1.35s.633-1.35 1.386-1.35m0 171.244H398.1a1.35 1.35 0 0 1 1.359 1.349 1.35 1.35 0 0 1-1.359 1.349H34.774c-.754 0-1.386-.601-1.386-1.349s.633-1.349 1.386-1.349M1.458.977H500.74c.754 0 1.36.601 1.36 1.35a1.35 1.35 0 0 1-1.36 1.349H1.459c-.754 0-1.36-.602-1.36-1.35 0-.747.606-1.348 1.36-1.349m-.001 204.3H500.74c.754 0 1.36.601 1.36 1.349 0 .749-.606 1.35-1.36 1.35H1.459a1.35 1.35 0 0 1-1.36-1.35 1.35 1.35 0 0 1 1.36-1.349m105.988 114.514 2.08-.265c4.709-1.077 8.156-5.325 8.05-10.293-.151-5.665-4.902-10.166-10.61-10.055-5.718.144-10.277 4.882-10.156 10.558.072 5.623 4.712 10.127 10.37 10.055zm-2.852 2.461c-5.927-1.127-10.397-6.267-10.477-12.49-.142-7.158 5.555-13.1 12.769-13.283 7.221-.151 13.227 5.534 13.409 12.701l-.213 2.62c-1.086 5.944-6.237 10.531-12.582 10.69h-.294zm1.103-210.74c4.077-.142 7.26-3.493 7.145-7.541a7.36 7.36 0 0 0-7.598-7.092c-4.081.138-7.26 3.516-7.144 7.568.12 3.943 3.374 7.062 7.357 7.065zm-.24 2.725c-5.45-.002-9.94-4.292-10.103-9.711-.158-5.538 4.203-10.155 9.784-10.346 5.594-.188 10.234 4.177 10.423 9.711l-.133 2.038c-.806 4.594-4.767 8.144-9.651 8.308zm234.219 46.339c31.211 0 56.514-25.117 56.515-56.096 0-30.981-25.303-56.097-56.515-56.097a1.353 1.353 0 0 1-1.359-1.35c0-.746.607-1.347 1.359-1.349 32.72 0 59.235 26.319 59.235 58.796-.002 32.475-26.516 58.795-59.235 58.795a1.36 1.36 0 0 1-1.359-1.35c0-.747.607-1.348 1.359-1.349m-284.436-.283h.267c.752 0 1.356.604 1.36 1.35a1.35 1.35 0 0 1-1.36 1.349h-.267c-5.285 0-9.57-4.227-9.57-9.473 0-.748.632-1.349 1.386-1.349a1.36 1.36 0 0 1 1.36 1.349c0 3.75 3.047 6.774 6.824 6.774m.267-114.609c.753 0 1.36.602 1.36 1.35a1.35 1.35 0 0 1-1.36 1.35c-3.826 0-6.977 3.038-7.091 6.826-.027.745-.662 1.32-1.413 1.297-.75-.023-1.35-.633-1.333-1.376.159-5.262 4.545-9.447 9.837-9.447m446.591 160.944a1.35 1.35 0 0 1-1.36 1.349 1.35 1.35 0 0 1-1.359-1.349V2.327c0-.749.605-1.35 1.359-1.35s1.36.601 1.36 1.35zm-499.281 0c0 .747-.606 1.349-1.36 1.349a1.35 1.35 0 0 1-1.36-1.349V2.327c0-.749.606-1.35 1.36-1.35s1.36.601 1.36 1.35zm52.686-46.059H339.68c.754 0 1.36.602 1.36 1.35a1.35 1.35 0 0 1-1.36 1.349H55.504a1.354 1.354 0 0 1-1.36-1.349c0-.747.608-1.347 1.36-1.35m-7.097-7.047a1.354 1.354 0 0 1-1.36 1.35 1.354 1.354 0 0 1-1.36-1.35V55.434c0-.749.606-1.35 1.36-1.35s1.36.601 1.36 1.35zm7.097-107.838H339.68c.754 0 1.36.602 1.36 1.35s-.606 1.35-1.36 1.35H55.504a1.354 1.354 0 0 1-1.36-1.35c0-.747.608-1.347 1.36-1.35m51.321 73.963a1.35 1.35 0 0 1-1.36 1.349 1.35 1.35 0 0 1-1.359-1.349v-10.293c0-.749.605-1.35 1.359-1.35s1.36.601 1.36 1.35zm-16.652-16.52h10.104a1.35 1.35 0 1 1 0 2.699H90.173a1.353 1.353 0 0 1-1.36-1.349c0-.748.608-1.348 1.36-1.35m16.652-3.796a1.354 1.354 0 0 1-1.36 1.35 1.353 1.353 0 0 1-1.359-1.35V89.303c0-.748.605-1.35 1.359-1.35s1.36.602 1.36 1.35zm3.822 3.796h10.103c.754 0 1.36.601 1.36 1.35a1.35 1.35 0 0 1-1.36 1.349h-10.103a1.353 1.353 0 0 1-1.36-1.349c0-.748.607-1.348 1.36-1.35m287.448 85.604c46.88 0 84.904-37.719 84.906-84.25 0-46.534-38.025-84.277-84.906-84.277a1.354 1.354 0 0 1-1.359-1.35c0-.746.607-1.346 1.359-1.349 48.389 0 87.626 38.946 87.626 86.976-.003 48.028-39.238 86.975-87.626 86.975a1.36 1.36 0 0 1-1.359-1.349c0-.747.607-1.374 1.359-1.376M36.124 18.878a1.35 1.35 0 0 1-1.387 1.323c-8.274-.147-15.095 6.437-15.248 14.66v.264c-.007.742-.637 1.35-1.386 1.35a1.37 1.37 0 0 1-1.36-1.35v-.317C16.925 25.1 25 17.326 34.791 17.502a1.353 1.353 0 0 1 1.333 1.376m-1.626 169.86h.266c.75 0 1.354.606 1.36 1.35 0 .748-.606 1.376-1.36 1.376h-.266c-9.79 0-17.755-7.906-17.755-17.623 0-.745.61-1.344 1.36-1.349.754 0 1.386.601 1.386 1.349 0 8.22 6.727 14.897 15.009 14.897"/></svg>
